X: 21265
T: Keep The Old Ark Rolling
R: reel
M: 4/4
K: Dmajor
|:A3B AGFG|Addc d3e|faaf egfe|d>fe>d B>cd>B|
A3B AGFG|Addc d3e|faaf egfe|1 d4 B4:|2 d2 dc defg||
|:afdf a3f|gfga b2 ag|faaf egfe|dfed BcdB|
A3B AGFG|Addc d3e|faaf egfe|1 d2 dc defg:|2 d4 B4||

